X: 1
T: String Quartet in C Major opus 20 no 2 mvt 1
C: Franz Joseph Haydn
%%abc-version 2.0
%%abcx-abcm2ps-target-version 5.9.1 (29 Sep 2008)
%%abc-creator hum2abc beta
%%abcx-conversion-date 2021/02/14 14:38:09
%%abc-copyright Copyright (c) 1994, 2000 Center for Computer Assisted Research in the Humanities
%%abc-edited-by Frances Bennion
%%abcx-initial-encoding-date 1997/04/15
%%gracespace 0 6 6
%%humdrum-veritas 2545048819
%%humdrum-veritas-data 941389478
%%linebreak <none>
%%barnumbers 0
L: 1/8
M: 4/4
N: Derived from op20n2-01.krn
Q: "Moderato"
%%staves [1 2 3 4]
V: 1
V: 2
V: 3 clef=alto
V: 4 clef=bass
K: C
[V:1]z7 z [I:setbarnb1]|
[V:2]z7 z |
[V:3]z7 z |
[V:4]z7 G, |
[V:1]z8 |
[V:2]z2 C4 B,2 |
[V:3]zC, E,A, F,D, G,G, |
[V:4]C4 D3 E/F/ |
[V:1]z8 |
[V:2]CE EE E>C E/C/E/C/ |
[V:3]C,C, E,G, CC, z2 |
[V:4]EG GG G>E G/E/G/E/ |
[V:1]z8 |
[V:2]E>C E/C/E/C/ DC2 B, |
[V:3]CC, zC, F,2 G,2 |
[V:4]G>E G/E/G/E/ FE2 D |
[V:1]z8 |
[V:2]C2 G,2 A,2 FD |
[V:3]C,C, C,C, C,C, C,C, |
[V:4]C2 E2 F2 A,B, |
[V:1]z8 |
[V:2]E2 _B,2 A,2 FD |
[V:3]C,C, C,C, C,C, C,C, |
[V:4]C2 E2 F2 (3A,/B,/C/(3B,/C/D/ |
[V:1]z7 d |
[V:2]C2 z6 |
[V:3]C,C B,G, CB, A,D |
[V:4]C2 D3/C//D// E2 ^F3/E//F// |
[V:1]g4 a3 b/c'/ |
[V:2]z2 g4 ^f2 |
[V:3]G,G, B,E CA, DD |
[V:4]G2 z6 |
[V:1]bd' d'd' d'>b d'/b/d'/b/ |
[V:2]gb bb b>g b/g/b/g/ |
[V:3]G,G, B,D GG, z2 |
[V:4]z8 |
[V:1]d'>b d'/b/d'/b/ c'b2 a |
[V:2]b>g b/g/b/g/ ag2 ^f |
[V:3]GG, zG, C2 D2 |
[V:4]z8 |
[V:1]g2 b2 c'2 e^f/e//f// |
[V:2]g2 d2 e2 cA |
[V:3]G,G, G,G, G,G, G,G, |
[V:4]z8 |
[V:1]g2 b3/a//b// c'2 (3e/^f/g/(3f/g/a/ |
[V:2]Bd fd e2 c2 |
[V:3]G,G, G,G, G,G, G,G, |
[V:4]z8 |
[V:1]g8 |
[V:2]dg ^fe de dc |
[V:3]G,e dc Bc BA |
[V:4]G,,2 z6 |
[V:1]g8 |
[V:2]Be dc Bc A^F |
[V:3]Gc BA GE CA, |
[V:4]G,,2 z6 |
[V:1]g2 G>G G2 z2 |
[V:2]G2 B,>B, B,2 zG |
[V:3]B,2 G,>G, G,2 z2 |
[V:4]G,,2 G,,>G,, G,,2 z2 |
[V:1]zC EA FD GG, |
[V:2]c4 d3 e/f/ |
[V:3]z2 c4 B2 |
[V:4]z8 |
[V:1]Cz _b2 a2 f3/e//f// |
[V:2]e4 f2 A2 |
[V:3]c2 G2 F3 D |
[V:4]z/C,,/E,,/G,,/ C,/E,/G,/C/ z/C,,/F,,/A,,/ C,/F,/A,/B,/ |
[V:1]e2 _b2 a2 f3/e//f// |
[V:2]G2 E2 F2 A2 |
[V:3]E2 G,2 F,F2 D |
[V:4]C/C,,/E,,/G,,/ C,/E,/G,/C/ z/C,,/F,,/A,,/ C,/F,/A,/B,/ |
[V:1]e/c/e/g/ c'/g/e'/c'/ g'/e'/c'/g/ c'/g/e/c/ |
[V:2]G2 z6 |
[V:3]E2 z6 |
[V:4]C2 z6 |
[V:1]G,f2 e2 <a2 g//f//e//d// |
[V:2]zd2 c2 <A2 z |
[V:3]z2 G2 F3 z |
[V:4]z2 B,C2 <F,2 z |
[V:1]^cd ef =c7/ d//c// |
[V:2]_BA GF E4 |
[V:3]GF ED G4 |
[V:4]z4 G,4 |
[V:1]B2 zd g^f ed |
[V:2]D2 zB ed cB |
[V:3]G,2 (3:2:2z4 z/B,|
[V:4]G,,2 (3:2:2z4 z/G,|
[V:1](3:2:2c2-c//d//e//^f// g//a//b//c'a fc |
[V:2](3:2:2A2-A//B//c//d// e//^f//g//af cA |
[V:3]CB, A,G,2 <^F,2 A |
[V:4]A,G, ^F,E,2 <D,2 ^F |
[V:1]B2 e2 >^c2 d3/e//^f// |
[V:2]BB BB AA AA |
[V:3]G2 z2 >A2 dD |
[V:4]GG GG ^FF FF |
[V:1]g2 ^f/e/d/c/ c/B/^A/B <Bc//d// |
[V:2]GG GG ^FF FF |
[V:3]zB c2 z4 |
[V:4]EE EE DD DD |
[V:1]e2 >c2 Ac' ag |
[V:2]EB2 <c2 e cc |
[V:3]z^G AA A4 |
[V:4]C8 |
[V:1]g2 (3^f/d/e/(3f/e/d/ (3a/d/e/(3f/e/d/ (3c'/d/e/(3f/e/d/ |
[V:2]c2 >z2 (3a/^f/g/(3a/g/f/ (3a/f/g/(3a/g/f/ |
[V:3]A3 (3:2:2z4 z/ |
[V:4]D3 (3:2:2z4 z/|
[V:1]e'3 d'/c'/b g'e' ^c'|
[V:2]c'3 b/a/ gd ee |
[V:3](3z/^F/G/(3A/G/F/ (3A/G/F/(3A/G/F/ B4 |
[V:4](3z/D/E/(3^F/E/D/ (3F/E/D/(3F/E/D/ G4- |
[V:1]^c'2 d'2 zC2 B, |
[V:2]e2 d2 zA,2 G, |
[V:3]_B2 A2 z^F,2 G, |
[V:4]G2 ^F2 D,,2 E,,2 |
[V:1]zE z^F G2 (3z/b/c'/(3d'/c'/b/ |
[V:2]zC zA, G,2 (3z/g/a/(3b/a/g/ |
[V:3]zG, zC B,2 z2 |
[V:4]C,,2 zD,, G,,2 z2 |
[V:1]e'2 (3z/a/b/(3c'/b/a/ d'2 (3z/g/a/(3b/a/g/ |
[V:2]c'2 (3z/^f/g/(3a/g/f/ b2 (3z/e/f/(3g/f/e/ |
[V:3](3z/E/^F/(3G/F/E/ A2 (3z/D/E/(3F/E/D/ G2 |
[V:4](3z/C/D/(3E/D/C/ ^F2 (3z/B,/C/(3D/C/B,/ E2 |
[V:1]c'2 (3z/a/b/(3c'/b/a/ (3b/d/d/(3d'/d/d/ (3c'/d/d/(3b/d/d/ |
[V:2]a2 (3z/^f/g/(3a/g/f/ gB AG |
[V:3](3z/C/D/(3E/D/C/ ^F2 zD, (3^F,/A,/D/(3G,/B,/D/ |
[V:4](3z/A,/B,/(3C/B,/A,/ D2 z4 |
[V:1](3a/d/d/(3d'/d/d/ (3c'/d/d/(3b/d/d/ (3a/d/d/(3d'/d/d/ (3c'/d/d/(3b/d/d/ |
[V:2]^FB AG FB AG |
[V:3]D,D, (3^F,/A,/D/(3G,/B,/D/ D,D, (3F,/A,/D/(3G,/B,/D/ |
[V:4]D,,2 z2 D,,2 z2 |
[V:1]a2 zD Ee dc |
[V:2]^F2 zB, Cc BA |
[V:3]D,2 (3:2:2z4 z/^F,|
[V:4]D,,2 (3:2:2z4 z/D,,|
[V:1]B2 >c2 dd' c'b |
[V:2]G2 >A2 Bb ag |
[V:3]G,G, ^F,E,2 <D,2 E, |
[V:4]E,,E, D,C,2 <B,,2 C, |
[V:1]a2 >b2 c'd' e'd'/c'/ |
[V:2]^f2 >g2 ab c'b/a/ |
[V:3]^F,^F ED CB, A,A |
[V:4]D,D CB, A,G, ^F,^F |
[V:1]bg' e'^c' c'2 d'2 |
[V:2]gd ee e2 d2 |
[V:3]B4 _B2 A2 |
[V:4]G6 ^F2 |
[V:1]D/^F/A/c/ d/^f/a/c'/ c'a f_e |
[V:2]c8- |
[V:3]A8- |
[V:4]^F8- |
[V:1]_e2 d2 d4 |
[V:2](3:2:2c4- c/cc c|
[V:3](3:2:2A4- A/AA A|
[V:4](3:2:2F4- F/F^F F|
[V:1]d8 |
[V:2]_B8- |
[V:3]G8- |
[V:4]G>^F G/F/G/F/ GG =FF |
[V:1]_e>d e/d/e/d/ eg _bg |
[V:2]B_B BB BB BB |
[V:3]GG GG GG GG |
[V:4]_EE EE EE EE |
[V:1]_e>d e/d/e/d/ e_b ge |
[V:2]_BB BB BB BB |
[V:3]GG GG GG GG |
[V:4]_EE EE EE EE |
[V:1]^cc2 c2 c2 c |
[V:2]_B>A B/A/B/A/ BB AG |
[V:3]G>^F G/F/G/F/ GG A_B |
[V:4]_E8 |
[V:1]d3 e/c/ B2 zA |
[V:2]G6 zC |
[V:3]B3 c/A/ G2 z^F, |
[V:4](3:2:2D4- D/z2 D,|
[V:1]G2 zc B2 zg/e/ |
[V:2]B,2 z^F G2 ze/c/ |
[V:3]G,2 z6 |
[V:4]G,2 z6 |
[V:1]d3 e/c/ B2 zA |
[V:2]B3 c/A/ G2 zC |
[V:3]z7 ^F, |
[V:4]z7 D,, |
[V:1]G2 zc B2 zc' |
[V:2]B,2 z2 >e2 d2 |
[V:3]G,2 z^F, G,C B,^F |
[V:4]G,,2 z6 |
[V:1]b2 zc B2 z2 |
[V:2]za g2 z3 D |
[V:3]Gc B^F G2 z2 |
[V:4]z2 >D,2 G,,2 z2 |
[V:1]z8 |
[V:2]G,/G/_B/G/ g/G/B/G/ G,/G/B/G/ g/G/B/G/ |
[V:3]_B,B, B,B, B,B, B,B, |
[V:4]G,3 _B,/D/ GF ED |
[V:1]A3 ^c/e/ a^c' e'g' |
[V:2]^C/G/A/G/ a/G/A/G/ C/G/A/G/ a/G/A/G/ |
[V:3]A,^C CC CC CC |
[V:4]^C2 z6 |
[V:1]f'2 z6 |
[V:2]D/F/A/F/ f/F/A/F/ D/F/A/F/ f/F/A/F/ |
[V:3]DD DD DD DD |
[V:4]D,,3 F,,/A,,/ D,F, A,D |
[V:1]d3 ^f/a/ d'a ^f'e' |
[V:2]C/^F/A/F/ ^f/F/A/F/ C/F/A/F/ f/F/A/F/ |
[V:3]CC CC CC CC |
[V:4]^F2 z6 |
[V:1]^d'2 z6 |
[V:2]B,/^F/A/F/ ^f/F/A/F/ B,/F/A/F/ f/F/A/F/ |
[V:3]B,B, B,B, B,B, B,B, |
[V:4]B,,3 ^D,/^F,/ B,^D ^FA |
[V:1]e3 g/b/ e'b g'f' |
[V:2]B,/E/G/E/ e/E/G/E/ B,/E/G/E/ e/G/d/G/ |
[V:3]B,B, B,B, B,B, B,B, |
[V:4]G2 z6 |
[V:1]e'2 z6 |
[V:2]C/E/G/E/ e/E/G/E/ C/E/G/E/ e/E/G/E/ |
[V:3]CC CC CC CC |
[V:4]C,,3 E,,/G,,/ C,E, G,C |
[V:1]c3 e/g/ c'g e'd' |
[V:2]_B,/E/G/E/ e/E/G/E/ B,/E/G/E/ e/E/G/E/ |
[V:3]_B,B, B,B, B,B, B,B, |
[V:4]E2 z6 |
[V:1]^c'2 z6 |
[V:2]A,/E/G/E/ e/E/G/E/ A,/E/G/E/ e/E/G/E/ |
[V:3]A,A, A,A, A,A, A,A, |
[V:4]A,,3 ^C,/E,/ A,^C EG |
[V:1]d3 f/a/ d'a f'_e' |
[V:2]A,/D/F/D/ d/D/F/D/ A,/D/F/D/ d/F/c/F/ |
[V:3]A,A, A,A, A,A, A,A, |
[V:4]F2 z6 |
[V:1]d'2 z6 |
[V:2]_B,/D/F/D/ d/D/F/D/ B,/D/F/D/ d/D/F/D/ |
[V:3]_B,B, B,B, B,B, B,B, |
[V:4]_B,,3 D,/F,/ _B,D FA, |
[V:1]d3 f/d/ bd' f'^G, |
[V:2]^G,/D/F/D/ B/D/F/D/ G,/D/F/D/ B/D/F/D/ |
[V:3]^G,G, G,G, G,G, G,G, |
[V:4]^G,2 z6 |
[V:1]A,3 ^C/E/ A2 z2 |
[V:2]A,/^C/E/C/ ^c/C/E/C/ A,2 z2 |
[V:3]A,A, A,A, A,2 zA |
[V:4]A,,3 ^C,/E,/ A,2 z2 |
[V:1]z2 d4 ^c2 |
[V:2]zD FD GE AA |
[V:3]d4 e3 f/g/ |
[V:4]z8 |
[V:1]dD FA, _B,G, Cc |
[V:2]f4 g3 a/_b/ |
[V:3]f6 e2 |
[V:4]z8 |
[V:1]a4 b3 c'/d'/ |
[V:2]a6 ^g2 |
[V:3]f6 e2 |
[V:4]zF, A,C, D,B,, E,E, |
[V:1]c'e' e'e' e'>c' e'/c'/e'/c'/ |
[V:2]ac' c'c' c'>a c'/a/c'/a/ |
[V:3]e2 z2 >A2 AA |
[V:4]A,,2 z2 >A,2 A,A, |
[V:1]e'>^c' e'/c'/e'/c'/ e'c' ^ag |
[V:2]^c'>a c'/a/c'/a/ c'^a ge |
[V:3]AA, A,A, ^A,^C EG |
[V:4]G,G, G,G, ^F,^A, ^CE |
[V:1]e>^d e/d/e/d/ ee ee |
[V:2]^c8- |
[V:3]^A8- |
[V:4]^F8 |
[V:1]e8 |
[V:2]c8 |
[V:3]A8 |
[V:4]^F>^E F/E/F/E/ FF FF |
[V:1]^d8 |
[V:2]c>B c/B/c/B/ cc cc |
[V:3]A>^G A/G/A/G/ AA AA |
[V:4]^F8 |
[V:1]e8 |
[V:2]c>B c/B/c/B/ cc cc |
[V:3]A>^G A/G/A/G/ AA AA |
[V:4]E8 |
[V:1]^f8 |
[V:2]c>B c/B/c/B/ cc dc |
[V:3]A>^G A/G/A/G/ AA BA |
[V:4]^D8 |
[V:1]e4 E2 zE |
[V:2]Be dc B2 zC |
[V:3]^Gc BA G2 z2 |
[V:4]E6 z2 |
[V:1]Ff ed2 <c2 d |
[V:2]Dd cB2 <A2 B |
[V:3]z2 >^G,2 A,A GF |
[V:4]z2 >E,2 F,F ED |
[V:1]ec' ba ^gd' c'b |
[V:2]ce dc Bf ed |
[V:3]EC DE FD EF |
[V:4]CA, B,C DB, CD |
[V:1]e'3 c'/a/ _b2 z^g |
[V:2]eA AA F2 zd |
[V:3]E2 c2 _B2 z=B |
[V:4]C4 D2 zE |
[V:1]a2 za/f/ e3 f/d/ |
[V:2]c2 zf/d/ c3 d/B/ |
[V:3]A2 z6 |
[V:4]F2 z6 |
[V:1]c2 zB A2 zf |
[V:2]A2 zD C2 zd |
[V:3]z2 >^G,2 A,2 z2 |
[V:4]z2 >E,2 A,,2 z2 |
[V:1]e2 zd c>B c/B/c/B/ |
[V:2]c2 z^G A>G A/G/A/G/ |
[V:3]z8 |
[V:4]z8 |
[V:1]c2 ^c2 d>c d/c/d/c/ |
[V:2]A2 _B2 A>B A/B/A/B/ |
[V:3]z2 G2 A>G A/G/A/G/ |
[V:4]z2 E2 F>G F/G/F/G/ |
[V:1]de f^f g=f ea |
[V:2]A2 z_e dB cA |
[V:3]AG FA Gd cc |
[V:4]F^C D=C B,G, A,F, |
[V:1]c3 d/c/ B2 z2 |
[V:2]E4 D2 z2 |
[V:3]G4 G,2 z2 |
[V:4]G,4 G,,2 zG, |
[V:1]z8 |
[V:2]z2 C4 B,2 |
[V:3]zC, E,A, F,D, G,G, |
[V:4]C4 D3 E/F/ |
[V:1](3:2:2z4 z/gg g|
[V:2]CE EE E>C E/C/E/C/ |
[V:3]C,C, E,G, CC, z2 |
[V:4]EG GG G>E G/E/G/E/ |
[V:1]g>e g/e/g/e/ _b4- |
[V:2]E4- E>C E/C/E/C/ |
[V:3]CC,2 <z2 [CC,] [CC,][CC,] |
[V:4]G4- G>E G/E/G/E/ |
[V:1]b/g/e/c/ _B/G/E/_B,/ A,a fd |
[V:2]E2 G2 C2 A2 |
[V:3](3:2:2C4- [C/C,/]FD D|
[V:4]G2 E,2 F,3 ^F, |
[V:1]c2 (3B/G/A/(3B/A/G/ (3d/G/A/(3B/A/G/ (3f/G/A/(3B/A/G/ |
[V:2]D2 >z2 (3d/B/c/(3d/c/B/ (3d/B/c/(3d/c/B/ |
[V:3]D3 (3:2:2z4 z/ |
[V:4]G,3 (3:2:2z4 z/|
[V:1]d'2>f2 e c'a ^f|
[V:2]f2 >d2 cG AA |
[V:3](3z/B,/C/(3D/C/B,/ (3D/C/B,/(3D/C/B,/ E4 |
[V:4](3z/G,/A,/(3B,/A,/G,/ (3B,/A,/G,/(3B,/A,/G,/ C4- |
[V:1]^f2 g2 zF2 E |
[V:2]A2 G2 zD2 C |
[V:3]_E2 D2 zB,2 C |
[V:4]C2 B,2 G,,2 A,,2 |
[V:1]zA zB, C2 (3z/e/f/(3g/f/e/ |
[V:2]zF zD C2 z2 |
[V:3]zC zF, E,2 z2 |
[V:4]F,,2 zG,, C,2 (3z/C/D/(3E/D/C/ |
[V:1]a2 (3z/d/e/(3f/e/d/ g2 (3z/c/d/(3e/d/c/ |
[V:2](3z/A/B/(3c/B/A/ d2 (3z/G/A/(3B/A/G/ c2 |
[V:3](3z/F/G/(3A/G/F/ B2 (3z/E/F/(3G/F/E/ A2 |
[V:4]F2 (3z/B,/C/(3D/C/B,/ E2 (3z/A,/B,/(3C/B,/A,/ |
[V:1]f2 (3z/d/e/(3f/e/d/ (3e/G/G/(3g/G/G/ (3f/G/G/(3e/G/G/ |
[V:2](3z/F/G/(3A/G/F/ B2 ze dc |
[V:3](3z/D/E/(3F/E/D/ G2 zG, (3G,/B,/D/(3G,/C/E/ |
[V:4]D2 (3z/B,/C/(3D/C/B,/ C2 z2 |
[V:1](3d/G/G/(3g/G/G/ (3f/G/G/(3e/G/G/ (3d/G/G/(3g/G/G/ (3f/G/G/(3e/G/G/ |
[V:2]Be dc BE DC |
[V:3]G,G, (3G,/B,/D/(3G,/C/E/ G,G, (3G,/B,/D/(3G,/C/E/ |
[V:4]G,,2 z2 G,,2 z2 |
[V:1]d2 zG, A,A GF |
[V:2]B,2 (3:2:2z4 z/B,|
[V:3]G,2 zE, F,F ED |
[V:4]G,,2 (3:2:2z4 z/G,,|
[V:1]E2 >F2 Gg fe |
[V:2]CC B,A,2 <G,2 A, |
[V:3]C2 >D2 Ee dc |
[V:4]A,,A, G,F,2 <E,2 F, |
[V:1]d2 >e2 fg ag/f/ |
[V:2]B,B2 c de fe/d/ |
[V:3]BB AG FE DD |
[V:4]G,G FE DC B,2 |
[V:1]ec' a^f f2 g2 |
[V:2]cG AA A2 G2 |
[V:3]E4 _E2 D2 |
[V:4]C6 B,2 |
[V:1]f2 >_e2 dc Bc/d/ |
[V:2](3:2:2_A4- A/GF F|
[V:3]D2 >_E2 FE DD |
[V:4]B,8- |
[V:1]_A2 G2 G4 |
[V:2](3:2:2F4- F/FF F|
[V:3](3:2:2D4- D/DD D|
[V:4](3:2:2B,4- B,/B,B, B,|
[V:1]G8 |
[V:2]_E8- |
[V:3]C8- |
[V:4]C>B, C/B,/C/B,/ CC _B,B, |
[V:1]_A>G A/G/A/G/ Ac _ec |
[V:2]E_E EE EE EE |
[V:3]CC CC CC CC |
[V:4]_A,A, A,A, A,A, A,A, |
[V:1]_A>G A/G/A/G/ A_e cA |
[V:2]_EE EE EE EE |
[V:3]CC CC CC CC |
[V:4]_A,A, A,A, A,A, A,A, |
[V:1]^FF2 F2 F2 F |
[V:2]_E>D E/D/E/D/ EE DC |
[V:3]C>B, C/B,/C/B,/ CC D_E |
[V:4]_A,8 |
[V:1]G3 A/F/ E2 zD |
[V:2]C6 zB, |
[V:3]E3 F/D/ C2 zF, |
[V:4]G,4- G,2 zG,, |
[V:1]C2 zF E2 zc/A/ |
[V:2]C2 zB, C2 zA/F/ |
[V:3]E,2 z6 |
[V:4]C,2 z6 |
[V:1]G3 A/F/ E2 zD |
[V:2]E3 F/D/ C2 zB, |
[V:3]z7 F, |
[V:4]z7 G,, |
[V:1]C2 zF EA Gf |
[V:2]C2 zB, CF EB |
[V:3]E,2 z6 |
[V:4]C,2 z6 |
[V:1]ed cF E2 z2 |]
[V:2]cF EB, C2 z2 |]
[V:3]z2 >D,2 C,2 z2 |]
[V:4]z2 >G,,2 C,,2 z2 |]

